static/logos/gumroad-glyph-color.svg

<svg width="52" height="50" viewBox="0 0 52 50" fill="none" xmlns="http://www.w3.org/2000/svg">
<g clip-path="url(#clip0_1_2530)">
<path d="M30.4684 49.5101C42.3595 49.5101 51.9991 40.2047 51.9991 28.7258C51.9991 17.2469 42.3595 7.94128 30.4684 7.94128C18.5773 7.94128 8.9375 17.2469 8.9375 28.7258C8.9375 40.2047 18.5773 49.5101 30.4684 49.5101Z" fill="black"/>
<path d="M24.9131 45.1545C37.4197 45.1545 47.6309 35.3571 47.6309 23.183C47.6309 11.009 37.4197 1.21143 24.9131 1.21143C12.4066 1.21143 2.19531 11.009 2.19531 23.183C2.19531 35.3571 12.4066 45.1545 24.9131 45.1545Z" fill="#FF90E8" stroke="black" stroke-width="1.5625"/>
<path d="M23.2073 34.2677C16.8493 34.2677 13.1094 29.1307 13.1094 22.7406C13.1094 16.0998 17.2232 10.7122 25.077 10.7122C33.1803 10.7122 35.9228 16.2253 36.0475 19.3575H30.1883C30.0637 17.6034 28.5676 14.9722 24.9524 14.9722C21.088 14.9722 18.5946 18.3552 18.5946 22.49C18.5946 26.6248 21.088 30.0076 24.9524 30.0076C28.4431 30.0076 29.939 27.2512 30.5624 24.4948H24.9524V22.2394H36.7238V33.7665H31.5597V26.4994C31.1856 29.1307 29.5649 34.2677 23.2073 34.2677Z" fill="black"/>
</g>
<defs>
<clipPath id="clip0_1_2530">
<rect width="52" height="50" fill="white"/>
</clipPath>
</defs>
</svg>

<svg xmlns="http://www.w3.org/2000/svg" width="66.56" height="64" fill="none" viewBox="0 0 52 50"><g clip-path="url(#a)"><path fill="#000" d="M30.468 49.51C42.36 49.51 52 40.205 52 28.726 52 17.246 42.36 7.94 30.47 7.94c-11.892 0-21.532 9.306-21.532 20.785 0 11.479 9.64 20.784 21.531 20.784Z"/><path fill="#FF90E8" stroke="#000" stroke-width="1.563" d="M24.913 45.154c12.507 0 22.718-9.797 22.718-21.971S37.42 1.211 24.913 1.211c-12.506 0-22.718 9.798-22.718 21.972 0 12.174 10.212 21.971 22.718 21.971Z"/><path fill="#000" d="M23.207 34.268c-6.358 0-10.098-5.137-10.098-11.527 0-6.641 4.114-12.029 11.968-12.029 8.103 0 10.846 5.513 10.97 8.646h-5.859c-.124-1.755-1.62-4.386-5.236-4.386-3.864 0-6.357 3.383-6.357 7.518s2.493 7.518 6.357 7.518c3.491 0 4.987-2.757 5.61-5.513h-5.61v-2.256h11.772v11.527H31.56V26.5c-.374 2.632-1.995 7.769-8.353 7.769Z"/></g><defs><clipPath id="a"><path fill="#fff" d="M0 0h52v50H0z"/></clipPath></defs></svg>
